X: 1
T: (Have a) Holly Jolly Christmas [D]
C: Johnny Marks, 1962
S: http://gulfweb.net:34043/~rlwalker/abc/christmas/haveaholly.abc 2009-11-30
L: 1/4
M: 4/4
%Q: 1/4=80
K: D
%%continueall
F/2A/2 |\
"D"dd cc | B F2 F/A/ | BB AA | "A7"C4 |\
cc c> B | AA A> F | "A7"AA GA | "D"F2 z"A7"F/A/ ||\
"D"dd cc | B F2 F/A/ | BB AA | "A7"C4 |\
cc c>B | AA A>F | "A7"AA GE | "D"D4 |]|\
"G"d2 B>d | "F#m"cA A2 | "G"BG GB | "D"A4 |\
"Em"G2 E>G | "Bm"FB B2 | "E7"EE F^G | "A7"A2 z F/A/ ||\
"D"dd cc | B F2 F/A/ | BB AA | "A7"C4 "^I"|\
cc c/B/A/G/ | "D"FA Ad | "E7"e2 B2- | B2 "A7"c2 |\
"D"d4- | d3 |]
